storage/app/icons/phosphoricons/light/notepad-light.svg

<svg xmlns="http://www.w3.org/2000/svg" fill="currentColor" viewBox="0 0 256 256"><path d="M166 128a6 6 0 0 1-6 6H96a6 6 0 0 1 0-12h64a6 6 0 0 1 6 6m-6 26H96a6 6 0 0 0 0 12h64a6 6 0 0 0 0-12m54-114v160a30 30 0 0 1-30 30H72a30 30 0 0 1-30-30V40a6 6 0 0 1 6-6h26V24a6 6 0 0 1 12 0v10h36V24a6 6 0 0 1 12 0v10h36V24a6 6 0 0 1 12 0v10h26a6 6 0 0 1 6 6m-12 6h-20v10a6 6 0 0 1-12 0V46h-36v10a6 6 0 0 1-12 0V46H86v10a6 6 0 0 1-12 0V46H54v154a18 18 0 0 0 18 18h112a18 18 0 0 0 18-18Z"/></svg>

<svg xmlns="http://www.w3.org/2000/svg" viewBox="0 0 256 256" fill="currentColor"><path d="M166,128a6,6,0,0,1-6,6H96a6,6,0,0,1,0-12h64A6,6,0,0,1,166,128Zm-6,26H96a6,6,0,0,0,0,12h64a6,6,0,0,0,0-12ZM214,40V200a30,30,0,0,1-30,30H72a30,30,0,0,1-30-30V40a6,6,0,0,1,6-6H74V24a6,6,0,0,1,12,0V34h36V24a6,6,0,0,1,12,0V34h36V24a6,6,0,0,1,12,0V34h26A6,6,0,0,1,214,40Zm-12,6H182V56a6,6,0,0,1-12,0V46H134V56a6,6,0,0,1-12,0V46H86V56a6,6,0,0,1-12,0V46H54V200a18,18,0,0,0,18,18H184a18,18,0,0,0,18-18Z"/></svg>
